builds/assets/images/general/lifetime.svg

<svg id="Layer_1" xmlns="http://www.w3.org/2000/svg" viewBox="0 0 90 92.3"><style>.st0{fill:#ff9800}.st1{fill:none;stroke:#ff9800;stroke-width:2;stroke-miterlimit:10}</style><path class="st0" d="M74.5 6.5C73.9 6.4 59.6 4 45 4S16.1 6.4 15.5 6.5l-2.8.5v40.8c0 .3 2.2 28.1 31.1 38.7l1.1.4 1.1-.4C74.8 75.9 77.1 48 77.1 47.8V7.1l-2.6-.6zM15.9 9c.6-.1 14.7-2.6 29.1-2.6 14.4 0 28.5 2.4 29.1 2.5l.7.1v37.4H15.2V9h.7zm35.6 39.9v32.5c-.9.5-1.9 1-2.9 1.4V48.9h2.9zm2.5 0h2.9v29h.2c-1 .7-2 1.4-3.1 2.1V48.9zm5.3 0h2.9v24.5c-.9.9-1.9 1.8-2.9 2.7V48.9zm5.3 0h2.9v18c-.9 1.3-1.8 2.6-2.9 3.9V48.9zm5.4 0h4.6c-.4 2.4-1.5 7.8-4.6 13.8V48.9zm-34.5 0v30.7c-1-.6-2-1.3-2.9-2V48.9h2.9zm2.4 0h2.9v33.6c-1-.5-2-.9-2.9-1.4V48.9zm-16 17.2V48.9h2.9v21.2c-1.1-1.3-2-2.7-2.9-4zm-2.4-4.5c-2.7-5.6-3.7-10.5-4.1-12.7h4.1v12.7zm7.8 11.3v-24h2.9v26.8c-1.1-.9-2-1.8-2.9-2.8zm18 11.3l-.3.1-.3-.1c-.5-.2-.9-.4-1.4-.6V48.9h2.9v34.9c-.3.2-.6.3-.9.4z"/><path class="st1" d="M45 11.4l4.8 9.7 10.6 1.5-7.7 7.6 1.8 10.6-9.5-5-9.5 5 1.8-10.6-7.7-7.6 10.6-1.5z"/></svg>

<svg id="Layer_1" xmlns="http://www.w3.org/2000/svg" viewBox="0 0 90 92.3"><style>.st0{fill:#ff9800}.st1{fill:none;stroke:#ff9800;stroke-width:2;stroke-miterlimit:10}</style><path class="st0" d="M74.5,6.5C73.9,6.4,59.6,4,45,4C30.4,4,16.1,6.4,15.5,6.5L12.7,7l0,40.6l0,0.2c0,0.3,2.2,28.1,31.1,38.7 l1.1,0.4l1.1-0.4c28.8-10.6,31.1-38.5,31.1-38.7l0-40.7L74.5,6.5z M15.9,9C16.5,8.9,30.6,6.4,45,6.4c14.4,0,28.5,2.4,29.1,2.5 l0.7,0.1l0,37.4H15.2l0-37.4L15.9,9z M51.5,48.9v32.5c-0.9,0.5-1.9,1-2.9,1.4V48.9H51.5z M54,48.9h2.9v29h0.2c-1,0.7-2,1.4-3.1,2.1 V48.9z M59.3,48.9h2.9v24.5h0c-0.9,0.9-1.9,1.8-2.9,2.7V48.9z M64.6,48.9h2.9v18c-0.9,1.3-1.8,2.6-2.9,3.9V48.9z M70,48.9h4.6 c-0.4,2.4-1.5,7.8-4.6,13.8V48.9z M35.5,48.9v30.7c-1-0.6-2-1.3-2.9-2V48.9C32.6,48.9,35.5,48.9,35.5,48.9z M37.9,48.9h2.9v33.6 c-1-0.5-2-0.9-2.9-1.4V48.9z M21.9,66.1V48.9h2.9v21.2C23.7,68.8,22.8,67.4,21.9,66.1L21.9,66.1z M19.5,61.6 c-2.7-5.6-3.7-10.5-4.1-12.7h4.1V61.6z M27.3,72.9v-24h2.9v26.8C29.1,74.8,28.2,73.9,27.3,72.9z M45.3,84.2L45,84.3l-0.3-0.1 c-0.5-0.2-0.9-0.4-1.4-0.6V48.9h2.9v34.9C45.9,84,45.6,84.1,45.3,84.2z"/><path class="st1" d="M45 11.4L49.8 21.1 60.4 22.6 52.7 30.2 54.5 40.8 45 35.8 35.5 40.8 37.3 30.2 29.6 22.6 40.2 21.1z"/></svg>
